X:1
T:Quantrell
M:6/8
L:1/8
K:F
 z4 z C| FFF FEF| GFE F2 G| AGF F/2F/2 EF| AG^F G2 C/2C/2| CDE FGA|\
 AGF D2 E| FFF FGA| GFE F3|
